T: Esther's
M: 4/4
L: 1/8
K: Edor
EFGA BABc | dDDD ADFD | EFGA BAGF | GBAF GEE :|efge fgaf | efge fddf | gfed (3efg fe |1 dBAF GEE :|
